X: 1891
T: Stan Treacy's Set Tune No 1
B: australian traditional tunes wiki
M:4/4
L:1/8
R: Reel
Q: 1/4=100
K:G
V:1 
|:D2|"G"G2GA BG DB,|"C"C2E2E2DC|"G"B,2D2G2AB|"D7"cB AG FD EF|
"G"G2GA BG DB,|"C"C2E2E2DC|"G"B,2D2 "D7"FD EF|"G"G2G2G2:|
|:A2|"G"BA Bcd2cB|"C"cB cde2dc|"G"BA Bcd2cB|"D7"AG FED2GA|
"G"BA Bcd2cB|"C"cB cde2dc|"G"B2Bc "D7"AF DF|"G"G2G2G2:|
% abcbook-tune_id 6342d53aff05f2b05a2c1a37


% abcbook-boost 0
% abcbook-tablature 
% abcbook-transpose 
% abcbook-lastupdated 1665324391088
% abcbook-soundfonts 
% abcbook-repeats 1
% NFF Book 2007

